X:160
L:1/8
Q:1/4=120
M:4/4
K:A
"^Boldly" E<E A>B (c2 c<)f | e>A c>A .e>.A c/a z/ | E<E A>B (c2 c>)f | e<cc>B A<F F2 :| (A | 
 E>)(A C>)(A E>)(A c>)a | e<A c>A e>A c/a z/ | E>(A C>)(A E>)(A c>).f | e<cc>B A<FF>A | 
 E>A C>A E>A c>a | e>A (c/B/A) e>A (c>a) | (f>a) (e>a) .c<.a .A/.a z/ | e<c c>B A<F F2 || 
"^Last" [CFA]8 ||

